X: 34363
T: Reunion, The
R: jig
M: 6/8
K: Amajor
|:B|c3BAG|AED CB,A,|DEF EAc|dec BAB|
c3BAG|AED CB,A,|DEF EAG|AEC A,2:|
|:c|B2Ec2E|d3Bcd|c2A ABc|BGE E2c|B2Ec2E|
[1d3Bcd|c2Ae2c|B4B:|2 edc Bcd|c2A ABc|dFc BAB||

